X: 18
T:Mon amant me délaisse
T:Vive la rose
C:Paroles et musique : tradition franc-comtoise
Z:Transcrit et/ou corrigé par Michel BELLON - 2006-04-28
Z:Pour toute observation mailto:galouvielle@free.fr
M:6/8
L:1/8
K:C
z3z2G |: "C"C2D E2F | G3 G2G | "F"A3 cBA |1 "G"A3 G2G :|2 "G"A3 G2G |:
"C"c2G E2C | "G7"D3 F>FF | A2G F2D |1 "C"E3 G3 :|2 C3 z3 |]

%%footer $D   Galouvielle-MBe 2006 \n-- (--)
